X:192
T:Hardy Creek
C:
N:Transcribed by Kim Davis
R:bluegrass
L:1/8
Q:1/4=232
M:4/4
K:Bb
z7/1D |: "Gm"G_G =GA BA Bc | d2 de dc BA | G_G =GA BA Bc | "D7"dD z2 D2 D2 | "Gm"G_G =GA BA Bc | 
d2 de dc Bc | dc Bd "D7"cB Ac |1 B"Gm"A G_G =G4 :|2 B"Gm"A G_G =G2 G2 | "F"F2 FG A2 AB | 
c2 cd cB A2 | "Bb"BA Bc dc de | f2 fg fe d2 | "C"=ed c=B cd ef | g2 ga gf =e2 | 
"D"a_g dg ag _dg | a_g "D7"[c2_G2] [c4G4] | "Gm"G_G =GA BA Bc | d2 de dc BA | 
G_G =GA BA Bc | "D7"dD z2 D2 D2 | "Gm"G_G =GA BA Bc | d2 de dc Bc | dc Bd "D7"cB Ac | 
"Gm"BA G_G =G4 | z8 | 


